src/assets/icon-user.svg

<?xml version="1.0" encoding="UTF-8"?>
<svg width="24px" height="24px" viewBox="0 0 24 24" version="1.1" xmlns="http://www.w3.org/2000/svg" xmlns:xlink="http://www.w3.org/1999/xlink">
    <title>用户</title>
    <g id="页面-1" stroke="none" stroke-width="1" fill="none" fill-rule="evenodd">
        <g id="个人中心" transform="translate(-335.000000, -98.000000)" fill="#FFFFFF" fill-rule="nonzero">
            <g id="标准" transform="translate(0.000000, 88.000000)">
                <g id="用户" transform="translate(335.000000, 10.000000)">
                    <path d="M12,0 C5.38330894,0 0,5.38381091 0,12 C0,18.6161891 5.38381091,24 12,24 C18.6161891,24 24,18.6161891 24,12 C24,5.38381091 18.6166911,0 12,0 Z M12,23.0055637 C5.93147877,23.0055637 0.994938303,18.0685212 0.994938303,12 C0.994938303,5.93147875 5.93147877,0.994436292 12,0.994436292 C18.0685212,0.994436292 23.0050617,5.93147875 23.0050617,12 C23.0050617,18.0685212 18.0685212,23.0055637 12,23.0055637 Z M14.3372516,12.2038067 L14.3372516,12.2038067 C15.4642125,11.4493202 16.2071533,10.1647354 16.2071533,8.70646308 C16.2071533,6.3832671 14.323698,4.49981175 12.000502,4.49981175 C9.67730601,4.49981175 7.79385066,6.3832671 7.79385066,8.70646308 C7.79385066,10.1652374 8.53679148,11.4493202 9.66425433,12.2038067 C7.29788747,13.1364986 5.62275673,15.4411211 5.62275673,18.1382974 C5.62275673,18.1438193 5.62275673,18.1488391 5.62325872,18.153859 C5.62325872,18.154863 5.62275673,18.156369 5.62275673,18.1573729 C5.62275673,18.5258314 5.92143901,18.8240117 6.28989751,18.8240117 C6.65785399,18.8240117 6.80644217,18.5258314 6.80644217,18.1573729 C6.80644217,18.1493412 6.80443422,18.1418113 6.80393223,18.1332776 C6.80644217,15.3482535 9.21497594,12.9412257 12.001004,12.9412257 C14.788538,12.9412257 17.1980757,15.3507634 17.1980757,18.1382974 C17.1980757,18.1418114 17.1634386,18.8240117 17.7166283,18.8240117 C18.0825769,18.8240117 18.3792512,18.5273374 18.3792512,18.1618908 C18.3792512,18.1603849 18.3787492,18.1588789 18.3787492,18.1568709 C18.3787492,18.1508471 18.3792512,18.1448233 18.3792512,18.1382974 C18.3782472,15.4411211 16.7026145,13.1364986 14.3372516,12.2038067 Z M12,11.8865509 C10.2440494,11.8865509 8.82041415,10.4629157 8.82041415,8.70696506 C8.82041415,6.95051244 10.2440494,5.52737921 12,5.52737921 C13.7564526,5.52737921 15.1795859,6.95101443 15.1795859,8.70696506 C15.1795859,10.4629157 13.7559506,11.8865509 12,11.8865509 Z" id="形状"></path>
                </g>
            </g>
        </g>
    </g>
</svg>

<svg xmlns="http://www.w3.org/2000/svg" width="24" height="24" xmlns:v="https://vecta.io/nano"><path d="M12 0C5.383 0 0 5.384 0 12s5.384 12 12 12 12-5.384 12-12S18.617 0 12 0zm0 23.006A11.02 11.02 0 0 1 .995 12 11.02 11.02 0 0 1 12 .994 11.02 11.02 0 0 1 23.005 12 11.02 11.02 0 0 1 12 23.006zm2.337-10.802h0c1.127-.754 1.87-2.039 1.87-3.497A4.21 4.21 0 0 0 12.001 4.5a4.21 4.21 0 0 0-4.207 4.207 4.2 4.2 0 0 0 1.87 3.497 6.38 6.38 0 0 0-4.041 5.934.67.67 0 0 0 .667.686c.368 0 .517-.298.517-.667 0-.008-.002-.016-.003-.024.003-2.785 2.411-5.192 5.197-5.192s5.197 2.41 5.197 5.197c0 .004-.035.686.519.686.366 0 .663-.297.663-.662-.001-.011 0-.017 0-.024-.001-2.697-1.677-5.002-4.042-5.934zM12 11.887a3.18 3.18 0 0 1-3.18-3.18A3.18 3.18 0 0 1 12 5.527a3.18 3.18 0 0 1 3.18 3.18 3.18 3.18 0 0 1-3.18 3.18z" fill="#fff"/></svg>
